src/assets/icons/life-glassdoor.svg

<svg width="180" height="36" viewBox="0 0 180 36" fill="none" xmlns="http://www.w3.org/2000/svg">
<path fill-rule="evenodd" clip-rule="evenodd" d="M180 8.32196C179.994 8.21799 179.962 8.11727 179.906 8.02917C179.851 7.94108 179.775 7.86855 179.685 7.81805C179.277 7.61105 178.682 7.46997 177.471 7.46997C174.738 7.46997 172.321 8.83795 171.266 11.127V8.33093C171.267 8.27329 171.255 8.21616 171.234 8.16284C171.212 8.10953 171.18 8.06122 171.14 8.02039C171.099 7.97955 171.051 7.94709 170.998 7.92499C170.946 7.90288 170.889 7.89148 170.832 7.89148H166.74C166.682 7.89148 166.626 7.90288 166.573 7.92499C166.52 7.94709 166.472 7.97955 166.432 8.02039C166.391 8.06122 166.359 8.10953 166.338 8.16284C166.316 8.21616 166.305 8.27329 166.305 8.33093V27.18C166.305 27.4215 166.499 27.618 166.74 27.618H171.027C171.084 27.618 171.14 27.6067 171.193 27.5847C171.246 27.5626 171.294 27.5303 171.334 27.4896C171.374 27.449 171.406 27.4007 171.428 27.3475C171.45 27.2944 171.461 27.2375 171.461 27.18V18.702C171.461 14.9145 174.073 13.032 177.471 13.032C178.264 13.032 179.055 13.2091 179.453 13.3411C179.725 13.4311 180 13.2059 180 12.9164V8.32196ZM152.606 22.992C149.675 22.992 147.41 20.9026 147.41 17.7466C147.41 14.5906 149.677 12.4995 152.606 12.4995C155.535 12.4995 157.801 14.5906 157.801 17.7466C157.801 20.9026 155.535 22.9935 152.606 22.9935V22.992ZM152.606 7.40845C146.59 7.40845 142.099 11.5921 142.099 17.7466C142.099 23.9011 146.591 28.0831 152.606 28.0831C158.619 28.0831 163.111 23.901 163.111 17.748C163.111 11.592 158.619 7.40845 152.606 7.40845ZM128.754 22.9935C125.823 22.9935 123.557 20.9026 123.557 17.7466C123.557 14.5906 125.823 12.4995 128.754 12.4995C131.683 12.4995 133.947 14.5906 133.947 17.7466C133.947 20.9026 131.683 22.9935 128.754 22.9935ZM128.754 7.40845C122.738 7.40845 118.245 11.5921 118.245 17.7466C118.245 23.9011 122.738 28.0831 128.754 28.0831C134.766 28.0831 139.259 23.9011 139.259 17.7466C139.259 11.5921 134.766 7.40845 128.754 7.40845ZM104.934 23.0414C102.005 23.0414 99.8167 20.9506 99.8167 17.7556C99.8167 14.5591 102.005 12.468 104.934 12.468C107.826 12.468 110.051 14.4811 110.051 17.7556C110.051 20.9896 107.826 23.0414 104.934 23.0414ZM114.617 0.00146484H110.33C110.214 0.00146484 110.104 0.0476808 110.022 0.129822C109.941 0.211963 109.895 0.323288 109.895 0.439453V10.7325C108.567 8.83804 106.38 7.37695 103.335 7.37695C98.5686 7.37695 94.5059 11.0881 94.5059 17.7556C94.5059 24.4231 98.5671 28.131 103.411 28.131C106.263 28.131 108.489 26.8681 109.897 24.8566V27.18C109.897 27.4215 110.09 27.618 110.328 27.618H114.617C114.855 27.618 115.05 27.423 115.05 27.18V0.439453C115.05 0.323548 115.004 0.212469 114.923 0.130371C114.842 0.0482731 114.732 0.00186178 114.617 0.00146484ZM91.6661 21.6465C91.6661 26.1465 88.4246 28.0785 83.2314 28.0785C79.6418 28.0785 76.5551 27.1035 74.7893 25.0845C74.7225 25.0053 74.6851 24.9054 74.6832 24.8015C74.6813 24.6975 74.715 24.5961 74.7789 24.5145L77.2572 21.2655C77.2954 21.2164 77.3438 21.1763 77.3989 21.1479C77.454 21.1196 77.5145 21.1037 77.5764 21.1013C77.6382 21.0988 77.6998 21.1099 77.757 21.1339C77.8141 21.1578 77.8653 21.1941 77.9072 21.2401C79.2163 22.5946 81.2306 23.4225 83.7387 23.4225C85.1817 23.4225 86.3539 23.0294 86.3539 21.924C86.3539 20.8589 85.3007 20.6221 82.019 19.9111C79.1286 19.3201 75.5345 17.979 75.5345 13.6785C75.5345 9.69303 78.6615 7.40552 83.7758 7.40552C87.1423 7.40552 89.5626 8.43153 91.2674 10.0455C91.4311 10.2 91.446 10.461 91.3076 10.6395L88.9557 13.7236C88.9212 13.7709 88.8774 13.8105 88.827 13.8398C88.7766 13.8692 88.7206 13.8877 88.6628 13.8942C88.6049 13.9007 88.5463 13.8951 88.4907 13.8776C88.4351 13.86 88.3837 13.831 88.3398 13.7924C87.1869 12.7529 85.2694 12.1005 83.3861 12.1005C81.7855 12.1005 80.887 12.6136 80.887 13.4806C80.887 14.4676 81.9431 14.7045 85.4182 15.4545C88.8144 16.2045 91.6661 17.505 91.6661 21.648V21.6465ZM71.8423 21.6584C71.8423 26.1569 68.5993 28.0906 63.4061 28.0906C59.818 28.0906 56.7312 27.1155 54.9654 25.095C54.8988 25.0161 54.8614 24.9164 54.8592 24.8128C54.857 24.7092 54.8903 24.6081 54.9535 24.5264L57.4319 21.2759C57.4704 21.2272 57.5188 21.1874 57.574 21.1593C57.6292 21.1312 57.6897 21.1156 57.7515 21.1133C57.8132 21.1111 57.8748 21.1222 57.9318 21.1461C57.9889 21.1701 58.0401 21.2062 58.082 21.252C59.3926 22.605 61.4068 23.4346 63.9134 23.4346C65.3578 23.4346 66.5301 23.0416 66.5301 21.9346C66.5301 20.8696 65.4754 20.634 62.1952 19.923C59.3033 19.3305 55.7092 17.9894 55.7092 13.6904C55.7092 9.70493 58.8362 7.41742 63.9521 7.41742C67.317 7.41742 69.7359 8.44193 71.4422 10.0574C71.6058 10.2119 71.6206 10.4714 71.4838 10.6514L69.1304 13.7355C68.9817 13.9305 68.699 13.9695 68.516 13.8045C67.3616 12.765 65.4457 12.111 63.5624 12.111C61.9602 12.111 61.0616 12.6255 61.0616 13.4925C61.0616 14.4795 62.1179 14.7166 65.5929 15.4666C68.9906 16.2151 71.8409 17.5169 71.8409 21.6584H71.8423ZM46.1469 19.6485C46.1469 21.8175 44.3916 23.712 41.6559 23.712C39.8589 23.712 38.883 22.8824 38.883 21.6194C38.883 20.5154 39.7041 19.6859 41.3048 19.4489L46.1469 18.858V19.647V19.6485ZM42.7507 7.45642C38.6598 7.45642 35.579 8.83941 34.2015 11.5739C34.1561 11.6688 34.1453 11.7769 34.1711 11.879C34.197 11.9811 34.2578 12.0707 34.3428 12.132L37.4683 14.3881C37.6646 14.5291 37.9413 14.4824 38.0588 14.2679C38.9276 12.6899 40.8704 12.1514 42.7507 12.1514C45.055 12.1514 46.1469 12.9795 46.1469 14.124V14.439C46.1469 14.913 45.8747 15.1499 45.1324 15.2294L39.7815 15.702C36.1889 16.056 33.5335 18.3061 33.5335 21.8956C33.5335 25.5256 36.2663 28.0499 40.1326 28.0499C43.1792 28.0499 45.1324 26.5516 46.1469 24.9736V27.2175C46.1469 27.4605 46.3403 27.657 46.5813 27.657H50.8686C50.9838 27.657 51.0943 27.6108 51.1758 27.5286C51.2572 27.4465 51.303 27.3352 51.303 27.219V15.4651C51.303 9.98109 48.4512 7.45642 42.7493 7.45642H42.7507ZM29.996 0.437988V27.1785C29.996 27.42 29.8027 27.6165 29.5617 27.6165H25.2357C25.1205 27.6165 25.01 27.5703 24.9285 27.4882C24.8471 27.406 24.8013 27.2947 24.8013 27.1785V0.430481C24.8013 0.191981 24.9917 0 25.2268 0H29.5617C29.8012 0 29.996 0.194988 29.996 0.437988ZM10.4281 23.0206C7.49754 23.0206 5.31075 20.9295 5.31075 17.7345C5.31075 14.5395 7.49902 12.447 10.4281 12.447C13.3587 12.447 15.5052 14.46 15.5052 17.7345C15.5052 20.9685 13.3572 23.0206 10.4281 23.0206ZM20.1094 7.87042H15.8281C15.7113 7.87042 15.5994 7.91734 15.5168 8.00061C15.4342 8.08388 15.3878 8.1967 15.3878 8.31445V10.6335C14.2944 8.85748 12.0288 7.39655 9.02232 7.39655C4.17868 7.39655 0 11.067 0 17.6565C0 24.204 3.98378 27.7936 9.17849 27.7936C11.9901 27.7936 14.1768 26.61 15.4666 24.756V26.0189C15.4666 28.8584 14.098 31.1085 9.72444 31.1085C7.52577 31.1085 5.75999 30.369 4.2114 28.9845C4.16516 28.9415 4.11001 28.9093 4.04996 28.8904C3.98991 28.8714 3.92651 28.8661 3.86419 28.8748C3.80187 28.8836 3.74221 28.9061 3.68959 28.9409C3.63697 28.9757 3.59266 29.0219 3.55984 29.076L1.61853 32.3641C1.36713 32.7886 1.40128 33.0286 1.55897 33.1681C3.55533 34.9186 6.14976 36 9.92084 36C18.122 36 20.5438 31.386 20.5438 26.295V8.31006C20.544 8.25241 20.5329 8.19528 20.5112 8.14197C20.4895 8.08865 20.4575 8.04016 20.4171 7.99933C20.3768 7.9585 20.3288 7.92604 20.276 7.90393C20.2232 7.88183 20.1666 7.87042 20.1094 7.87042Z" fill="#0CAA41"/>
</svg>

<svg width="180" height="36" fill="none" xmlns="http://www.w3.org/2000/svg"><path fill-rule="evenodd" clip-rule="evenodd" d="M180 8.322a.616.616 0 0 0-.315-.504c-.408-.207-1.003-.348-2.214-.348-2.733 0-5.15 1.368-6.205 3.657V8.331a.44.44 0 0 0-.268-.406.426.426 0 0 0-.166-.034h-4.092a.431.431 0 0 0-.402.272.44.44 0 0 0-.033.168V27.18c0 .242.194.438.435.438h4.287a.432.432 0 0 0 .401-.27.437.437 0 0 0 .033-.168v-8.478c0-3.788 2.612-5.67 6.01-5.67.793 0 1.584.177 1.982.31.272.09.547-.136.547-.426V8.322Zm-27.394 14.67c-2.931 0-5.196-2.09-5.196-5.245 0-3.156 2.267-5.248 5.196-5.248s5.195 2.092 5.195 5.248-2.266 5.247-5.195 5.247v-.002Zm0-15.584c-6.016 0-10.507 4.184-10.507 10.339 0 6.154 4.492 10.336 10.507 10.336 6.013 0 10.505-4.182 10.505-10.335 0-6.156-4.492-10.34-10.505-10.34Zm-23.852 15.585c-2.931 0-5.197-2.09-5.197-5.246 0-3.156 2.266-5.248 5.197-5.248 2.929 0 5.193 2.092 5.193 5.248s-2.264 5.247-5.193 5.247Zm0-15.585c-6.016 0-10.509 4.184-10.509 10.339 0 6.154 4.493 10.336 10.509 10.336 6.012 0 10.505-4.182 10.505-10.336 0-6.155-4.493-10.339-10.505-10.339Zm-23.82 15.633c-2.929 0-5.117-2.09-5.117-5.285 0-3.197 2.188-5.288 5.117-5.288 2.892 0 5.117 2.013 5.117 5.288 0 3.234-2.225 5.285-5.117 5.285Zm9.683-23.04h-4.287a.434.434 0 0 0-.435.438v10.293c-1.328-1.894-3.515-3.355-6.56-3.355-4.766 0-8.83 3.711-8.83 10.379 0 6.667 4.062 10.375 8.906 10.375 2.852 0 5.078-1.263 6.486-3.274v2.323c0 .242.193.438.431.438h4.289a.436.436 0 0 0 .433-.438V.44a.44.44 0 0 0-.433-.439Zm-22.95 21.645c0 4.5-3.242 6.432-8.436 6.432-3.59 0-6.676-.974-8.442-2.994a.452.452 0 0 1-.01-.57l2.478-3.248a.428.428 0 0 1 .5-.132c.057.024.108.06.15.106 1.31 1.355 3.324 2.183 5.832 2.183 1.443 0 2.615-.394 2.615-1.499 0-1.065-1.053-1.302-4.335-2.013-2.89-.59-6.485-1.932-6.485-6.233 0-3.985 3.127-6.272 8.242-6.272 3.366 0 5.787 1.026 7.491 2.64a.447.447 0 0 1 .04.594l-2.351 3.084a.422.422 0 0 1-.465.154.42.42 0 0 1-.151-.086c-1.153-1.04-3.07-1.691-4.954-1.691-1.6 0-2.499.513-2.499 1.38 0 .987 1.056 1.223 4.531 1.973 3.396.75 6.248 2.051 6.248 6.194v-.002Zm-19.825.012c0 4.499-3.243 6.433-8.436 6.433-3.588 0-6.675-.976-8.44-2.996a.452.452 0 0 1-.013-.569l2.479-3.25a.43.43 0 0 1 .5-.13c.057.024.108.06.15.106 1.31 1.353 3.325 2.183 5.831 2.183 1.445 0 2.617-.393 2.617-1.5 0-1.065-1.055-1.301-4.335-2.012-2.892-.592-6.486-1.934-6.486-6.233 0-3.985 3.127-6.273 8.243-6.273 3.365 0 5.784 1.025 7.49 2.64a.449.449 0 0 1 .042.594l-2.354 3.085a.42.42 0 0 1-.614.069c-1.154-1.04-3.07-1.694-4.954-1.694-1.602 0-2.5.514-2.5 1.381 0 .987 1.056 1.225 4.53 1.975 3.399.748 6.249 2.05 6.249 6.191h.001Zm-25.695-2.01c0 2.17-1.755 4.064-4.491 4.064-1.797 0-2.773-.83-2.773-2.093 0-1.104.821-1.933 2.422-2.17l4.842-.591v.791ZM42.75 7.456c-4.091 0-7.172 1.383-8.55 4.118a.451.451 0 0 0 .142.558l3.125 2.256a.4.4 0 0 0 .59-.12c.87-1.578 2.812-2.117 4.693-2.117 2.304 0 3.396.829 3.396 1.973v.315c0 .474-.272.71-1.015.79l-5.35.473c-3.593.354-6.248 2.604-6.248 6.194 0 3.63 2.732 6.154 6.599 6.154 3.046 0 5-1.498 6.014-3.076v2.244c0 .242.193.439.434.439h4.288a.44.44 0 0 0 .434-.438V15.465c0-5.484-2.852-8.009-8.554-8.009h.002ZM29.996.438v26.74a.436.436 0 0 1-.434.438h-4.326a.433.433 0 0 1-.435-.438V.43c0-.238.19-.43.426-.43h4.335c.24 0 .434.195.434.438ZM10.428 23.021c-2.93 0-5.117-2.091-5.117-5.287 0-3.195 2.188-5.287 5.117-5.287 2.93 0 5.077 2.013 5.077 5.288 0 3.233-2.148 5.286-5.077 5.286ZM20.11 7.87h-4.28a.446.446 0 0 0-.44.444v2.319c-1.095-1.777-3.36-3.237-6.367-3.237C4.18 7.397 0 11.067 0 17.657c0 6.547 3.984 10.137 9.178 10.137 2.812 0 4.999-1.184 6.289-3.038v1.263c0 2.84-1.369 5.09-5.743 5.09-2.198 0-3.964-.74-5.513-2.125a.424.424 0 0 0-.651.092l-1.941 3.288c-.252.425-.218.665-.06.804C3.555 34.918 6.149 36 9.921 36c8.201 0 10.623-4.614 10.623-9.705V8.31a.442.442 0 0 0-.268-.406.431.431 0 0 0-.167-.034Z" fill="#0CAA41"/></svg>
